X: 1074
T: Rosebud of Allenvale (A34)
N: page A34
N: heptatonic
N: matches 394
C: J. Scott Skinner
M:3/4
R:waltz
L:1/8
Z:Alf Warnock - alf0@rogers.com
K:A
e2d2\
|"A"c3d c2| "E"B3c B2| "A"A6| A2 B2 c2|\
"D"d3e f2| "A"e2 A2 c2| "E"B6-|
B2 e2 d2|"A"c3e c2|A2 B2 c2|"D"d4 e2|f3g a2|\
"A"e2 A2 d2| "E"c4 B2| "A"A6-| A2 :|
c2d2|"A7"e3f =g2| f4 e2|"D"d6-| d6|\
f3g a2|"E" g4 f2| "E7"e6-| e2 f2 g2|
"A"a3e c2| "A7"A2 G2 =G2|"D"F3A d2|f2 g2 a2|\
"A"e2 A2 d2| "E7"c4 B2| "A"A6-| A4:|
